X: 1
T: Hanter dro
O: source: Lothod\'e/Cadudal
Z: 2019 John Chambers <jc:trillian.mit.edu>
S: NEFFA 2019 French Jam handout p.16
M: 6/4
L: 1/8
K: Am
"^A"|:\
"Am"A2 Bc "G"d2 Bc "Am"A4 | "Am"Bc de "Dm"d2 c2 "Em"B2 B2 |\
"Am"A2 Bc "G"d2 Bc "Am"A4 | "Am"Bc de "Dm"d2 c2 "Em"B4 :|
"^B"|:\
"Am"e2 ed c2 B2 A4 | "Dm"Bc de d2 c2 "Em"B2 B2 |\
"Am"e2 ed c2 B2 A4 | "Am"Ae dc "G"B2 cB "Am"A4 :|
